neru-light-classic/32x32/apps/google-play-music-desktop-player.svg

<?xml version="1.0" encoding="UTF-8" standalone="no"?>
<svg
   xmlns:dc="http://purl.org/dc/elements/1.1/"
   xmlns:cc="http://creativecommons.org/ns#"
   xmlns:rdf="http://www.w3.org/1999/02/22-rdf-syntax-ns#"
   xmlns:svg="http://www.w3.org/2000/svg"
   xmlns="http://www.w3.org/2000/svg"
   xmlns:sodipodi="http://sodipodi.sourceforge.net/DTD/sodipodi-0.dtd"
   xmlns:inkscape="http://www.inkscape.org/namespaces/inkscape"
   height="32"
   viewBox="0 0 32 32"
   width="32"
   version="1.1"
   y="0"
   x="0"
   id="svg14"
   sodipodi:docname="chrome-fahmaaghhglfmonjliepjlchgpgfmobi-Default.svg"
   inkscape:version="0.92.1 r">
  <metadata
     id="metadata20">
    <rdf:RDF>
      <cc:Work
         rdf:about="">
        <dc:format>image/svg+xml</dc:format>
        <dc:type
           rdf:resource="http://purl.org/dc/dcmitype/StillImage" />
      </cc:Work>
    </rdf:RDF>
  </metadata>
  <defs
     id="defs18" />
  <sodipodi:namedview
     pagecolor="#ffffff"
     bordercolor="#666666"
     borderopacity="1"
     objecttolerance="10"
     gridtolerance="10"
     guidetolerance="10"
     inkscape:pageopacity="0"
     inkscape:pageshadow="2"
     inkscape:window-width="1680"
     inkscape:window-height="965"
     id="namedview16"
     showgrid="false"
     inkscape:zoom="7.375"
     inkscape:cx="-1.6271186"
     inkscape:cy="16"
     inkscape:window-x="0"
     inkscape:window-y="0"
     inkscape:window-maximized="1"
     inkscape:current-layer="svg14" />
  <rect
     style="opacity:1;fill:#eb4d27;fill-opacity:1;fill-rule:evenodd;stroke:none;stroke-width:1.03534329;stroke-linecap:round;stroke-linejoin:bevel;stroke-miterlimit:4;stroke-dasharray:none;stroke-dashoffset:0;stroke-opacity:1"
     id="rect4497-3"
     width="28.203388"
     height="28.203388"
     x="1.8983059"
     y="1.8983059"
     ry="5.575182" />
  <g
     id="g4506"
     transform="matrix(0.74818363,0,0,0.74818363,4.4031369,4.0291175)">
    <path
       style="fill:#ffffff"
       id="path2"
       d="M 26.86,14.426 5.739,2.362 C 4.8366,1.8532 4.0291,1.9009 3.5383,2.3784 3.19,2.7126 3,3.2537 3,3.954 v 24.08 c 0,0.70028 0.20583,1.2414 0.53832,1.5756 0.50665,0.49338 1.2983,0.54113 2.2008,0.01592 l 21.121,-12.064 c 1.5199,-0.85943 1.5199,-2.26 0,-3.1353 z"
       inkscape:connector-curvature="0" />
    <path
       id="path6"
       d="M 15.5,5 C 14.139,5 12.842,5.267 11.648,5.7383 L 11.645,5.7363 A 10.5,10.5 0 0 0 11.609,5.752 C 11.335,5.8617 11.067,5.9855 10.805,6.1172 A 10.5,10.5 0 0 0 10.656,6.1895 C 10.398,6.3243 10.148,6.4718 9.9023,6.627 A 10.5,10.5 0 0 0 9.7539,6.7168 C 9.523,6.8682 9.3017,7.0326 9.084,7.2012 A 10.5,10.5 0 0 0 8.9004,7.3379 C 8.7035,7.4972 8.5187,7.6689 8.334,7.8418 A 10.5,10.5 0 0 0 8.1211,8.0352 C 7.8927,8.2609 7.6757,8.4964 7.4688,8.7422 A 10.5,10.5 0 0 0 7.4316,8.7832 C 6.5453,9.847 5.8673,11.089 5.4551,12.447 A 10.5,10.5 0 0 0 5.4414,12.498 C 5.3472,12.814 5.2656,13.137 5.2012,13.465 A 10.5,10.5 0 0 0 5.1816,13.586 C 5.1277,13.878 5.0819,14.172 5.0527,14.473 A 10.5,10.5 0 0 0 5,15.5 c 0,0.33 0.019,0.656 0.0488,0.979 a 10.5,10.5 0 0 0 0.0235,0.197 c 0.0313,0.28 0.074,0.557 0.1269,0.83 a 10.5,10.5 0 0 0 0.0274,0.137 c 0.2131,1.026 0.5754,1.997 1.0644,2.89 0.3379,0.617 0.7353,1.195 1.1856,1.729 1.1107,1.316 2.5334,2.361 4.1624,3.006 0.017,0.006 0.029,-0.004 0.045,0 a 10.5,10.5 0 0 0 1.064,0.353 L 25.615,18.273 A 10.5,10.5 0 0 0 26,15.5 c 0,-0.453 -0.038,-0.896 -0.094,-1.334 A 10.5,10.5 0 0 0 25.865,13.857 L 25.857,13.854 C 25.065,8.8389 20.737,5 15.5,5 Z"
       inkscape:connector-curvature="0"
       style="fill:#ffd739" />
    <circle
       id="circle8"
       r="6.5"
       cx="15.5"
       cy="15.5"
       style="fill:#ff8c00" />
  </g>
</svg>

<svg xmlns="http://www.w3.org/2000/svg" height="32" width="32"><rect width="28.203" height="28.203" x="1.898" y="1.898" ry="5.575" fill="#eb4d27" fill-rule="evenodd"/><g transform="matrix(.74818 0 0 .74818 4.403 4.03)"><path d="M26.86 14.426L5.739 2.362c-.902-.509-1.71-.461-2.2.016C3.19 2.713 3 3.254 3 3.954v24.08c0 .7.206 1.241.538 1.576.507.493 1.299.54 2.201.016L26.86 17.562c1.52-.86 1.52-2.26 0-3.136z" fill="#fff"/><path d="M15.5 5c-1.361 0-2.658.267-3.852.738l-.003-.002a10.5 10.5 0 0 0-.036.016c-.274.11-.542.234-.804.365a10.5 10.5 0 0 0-.149.072c-.258.135-.508.283-.754.438a10.5 10.5 0 0 0-.148.09c-.231.151-.452.316-.67.484a10.5 10.5 0 0 0-.184.137c-.197.16-.381.33-.566.504a10.5 10.5 0 0 0-.213.193c-.228.226-.445.461-.652.707a10.5 10.5 0 0 0-.037.041 10.476 10.476 0 0 0-1.977 3.664 10.5 10.5 0 0 0-.014.051c-.094.316-.175.639-.24.967a10.5 10.5 0 0 0-.02.121c-.053.292-.1.586-.128.887A10.5 10.5 0 0 0 5 15.5c0 .33.019.656.049.979a10.5 10.5 0 0 0 .023.197c.032.28.074.557.127.83a10.5 10.5 0 0 0 .028.137 10.427 10.427 0 0 0 2.25 4.619 10.528 10.528 0 0 0 4.162 3.006c.017.006.029-.004.045 0a10.5 10.5 0 0 0 1.064.353l12.867-7.348A10.5 10.5 0 0 0 26 15.5c0-.453-.038-.896-.094-1.334a10.5 10.5 0 0 0-.041-.309l-.008-.003C25.065 8.839 20.737 5 15.5 5z" fill="#ffd739"/><circle r="6.5" cx="15.5" cy="15.5" fill="#ff8c00"/></g></svg>
